X:13015
T:Miss McLeod's Reel
T:McLeod's; Hop High Ladies
R:Reel
C:Trad. O'Neill's 1850
O:Ireland
Z:Paul Hardy's Session Tunebook 2022 (see www.paulhardy.net). Creative Commons cc by-nc-sa licenced.
M:4/4
L:1/8
Q:1/4=130
K:G
BA|"G"G2BG DGBG|B2BA BcBA|G2BG DGBG|"D"A2AG AcBA|
"G"G2BG DGBG|B2BA B2d2|"Em"e3f edef|"G"gedB "D7"Ac:|
|:BA|"G"G2g2 "Em"edeg|"G"B2BA BcBA|G2g2 "Em"edeg|"D"a2ag ac'ba|
"G"g2gf "Em"edeg|"G"BcBA B2d2|"Em"edcB "C"cdef|"G"gedB "D"A2:|"G" "_Out"G6|]

